img/tg.svg

<svg width="25" height="24" viewBox="0 0 25 24" fill="none" xmlns="http://www.w3.org/2000/svg">
<path fill-rule="evenodd" clip-rule="evenodd" d="M12.5901 0.000717078C19.052 0.14389 24.1938 5.51287 24.1243 12.0272C24.0548 18.5416 18.7046 23.6958 12.2427 23.6243C5.71124 23.5527 0.5 18.3269 0.5 11.8125C0.569483 5.22653 5.98917 -0.0708694 12.5901 0.000717078ZM10.2619 17.2592L10.4935 13.9088L16.4594 8.39903C16.719 8.16263 16.4034 8.03183 16.0563 8.26823L8.68103 13.0148L5.50587 11.999C4.81518 11.7788 4.80235 11.2928 5.64995 10.9544L18.0694 6.06384C18.6446 5.84364 19.1474 6.19464 18.9602 7.09224L18.9596 7.09284L16.8467 17.276C16.6875 17.9948 16.2715 18.173 15.6812 17.8346L12.4623 15.41L10.9088 16.937C10.7367 17.1128 10.5932 17.2592 10.2619 17.2592Z" fill="#999999"/>
</svg>

<svg width="25" height="24" fill="none" xmlns="http://www.w3.org/2000/svg"><path fill-rule="evenodd" clip-rule="evenodd" d="M12.59 0c6.462.144 11.604 5.513 11.534 12.027-.07 6.515-5.42 11.669-11.881 11.597C5.71 23.553.5 18.327.5 11.813.57 5.226 5.99-.072 12.59 0zm-2.328 17.26l.231-3.351 5.966-5.51c.26-.236-.056-.367-.403-.13l-7.375 4.746-3.175-1.016c-.69-.22-.704-.706.144-1.045l12.42-4.89c.575-.22 1.077.13.89 1.028l-2.113 10.184c-.16.719-.576.897-1.166.559l-3.219-2.425-1.553 1.527c-.172.176-.316.322-.647.322z" fill="#999"/></svg>
